X: 51
T: No_40_Klokali_Song_(b).krn
N: Derived from No_40_Klokali_Song_(b).krn
%%abc-version 2.0
%%abcx-abcm2ps-target-version 5.9.1 (29 Sep 2008)
%%abc-creator hum2abc beta
%%abcx-conversion-date 2019/03/15 08:36:13
%%humdrum-veritas 2303807657
%%humdrum-veritas-data 2882430323
%%linebreak <none>
%%barnumbers 0
L: 1/8
M: 3/4
K: Db clef=bass
[K:clef=bass]z2z G, | 
A,4 | 
B,B,B,2 | 
B,3/A,/ A, z | 
B,3/A,/A,2 | 
A,A, A, z ||  
[M:3/4]B,3/A,/ A, z/ A,/ A,3/G,// z// | 
A,3/G,/A,2A, z ||  
[M:2/4]A,3/G,/ A,3/A,/ | 
A,3/F,/ F, z/ A,/ | 
A,A, A, z ]|:  
A,3/A,/A,2 | 
B,3/A,/ A, z | 
B,3/B,/B,2 | 
B,3/A,/ A, z | 
B,3/A,/A,2 | 
A,3/A,/ A, z ||  
[M:3/4]B,3/A,/ A, z/ A,/ A,3/F,// z// | 
A,3/A,/A,2A, z ||  
[M:2/4]A,3/A,/ A,3/A,/ | 
A,3/F,/ F, z/ A,/ | 
A,3/A,/ A, z :|]  
A,3/A,/A,2 | 
B,3/A,/A,2 | 
B,4 |]  



